X: 17
T: Come, let us drink
N: Derived from ojibwa17.krn
C: Chippewa Songs ~ 1910
O: Red Wing, Minnesota, U.S.A
N: Chippewa Music by Frances Densmore, 1910
Z: transcribed to **kern format by Paul von Hippel and Daniel T. Shanahan
L: 1/8
M: 2/4
Q: 1/4=108
K: Bb clef=bass
%%linebreak <none>
D2D C | 
G,3G, | 
[M:3/4]G, G,/ G,/ G, G, D,3/ C/ | 
C2C/ G,/ G,/ F,/ D, D, | 
[M:2/4]C,3C, | 
G,2(3B, G, F, | 
D,2C,3/ =B,,/ | 
C,2(3D, C, B,, | 
C,3D | 
[M:3/4]D2D C (3B, C B, | 
[M:2/4]G,3G, | 
[M:3/4]G,2G, F, D, F,/ F,/ | 
[M:2/4]D,3D, | 
[M:3/4]C,> B,,G,,2(3A,, A,, B,, | 
G,,4z2 |]  



